X: 1
T: Connaughtman's Rambles (D major / B minor)
C: traditional
O: Ireland
R: Double Jig
Z: transcribed and arranged by Frank Weber
D: 1977: Terry Teahan (1905-1989) & Gene Kelly: Old Time Irish Music in America
D: 1978: Matt Molloy, Paul Brady & Tommy Peoples: Molloy, Brady, Peoples
D: 1979: M疂rt匤 O'Connor: The Connachtman's Rambles
D: 1987: Matt Molloy: Stony Steps
D: 1991: Neil Mulligan: Barr na C仡lle
D: 1991: Tommy Keane: The Piper's Apron
D: 1992: Gerry O'Connor: Time to Time
D: 1992: Goats Don't Shave: The Rusty Razor
D: 1993: Kevin Griffin: Down in Doolin
D: 1994: Frankie Gavin: Irlande
D: 1994: Karen Tweed: Drops of Springwater
D: 1994: Brendan Power: New Irish Harmonica
D: 1995: Na Connerys: The Session
D: 1996: Joe Burke: The Bucks of Oranmore
D: 1997: S饌mus Ennis (1919-1982): The Bunny Bunch of Roses
D: 1997: Garifin: Rough Land
D: 1997: Todd Denman & Dale Russ: Reeds and Rosin
D: 1999: Dereelium: Millvalley
D: 1999: Niall Vallely: Beyond Words
D: 1999: Cathal Hayden: Cathal Hayden
D: 1999: D伃sert: Days of Doolin
D: 2002: Sean Norman C駟l�Band: Mighty Set Night
D: 2005: Mikie Smyth: The Wild Keys
D: 2005: Martin Junior Crehan (1908-1998): Last House in Ballymakea
D: 2005: Carrantuohill & Goscie: Session, Natural, Irish and Jazz - Muzyczna Owczarnia
D: 2009: Traditional Irish Music from Belfast
D: 2010: The Lennon Family: D昱has Cheoil - Dance of the Honey Bees
D: 2010: Gavin Whelan: 120 Irish Traditional Tunes
D: 2010: Mike Simpson: Comhaltas Live #316-3
D: 2012: The Naomh ﾍde C鳫l�Band: Comhaltas Live #375-7
D: 2012: The Naomh ﾍde C駟l�Band: Comhaltas Live #382-1
D: 2012: Timmy O辰onnor: Comhaltas Live #383-6
D: 2014: Noel Kilkenny, Fiona Doherty, John McEvilly, John Kilkenny, Siobh疣 McHugh: Comhaltas Live #429-10
D: 2015: Bobby Gardiner & David Foley: Comhaltas Live #464-10
D: 2017: Fergal Scahill: A Fiddle Tune a Day 2017 (Tune #100)
D: Comhaltas: Fionn Seisi佖, Vol. 1
D: Waltons: Session Tunes, Vol. 1
D: Turloughmore C駟l�Band: Seven Dreams
D: Shaskeen: Vol. 3
D: Matt Cunningham: Dance Music of Ireland, Vol. 1
D: Matt Cunningham: Dance Music of Ireland, Vol. 3
D: Matt Cunningham: Dance Music of Ireland, Vol. 4
D: Matt Cunningham: Dance Music of Ireland, Vol. 5
D: All Star C駟l�Band: Traditional Irish Dance Music
N: Chords: | D  -  | G  -  | D  -  | G  -   |
N:         | D  -  | G  D  | Em D  | G  -  :|
N:         | Bm -  | Bm G  | Bm -  | Bm A   |
N:         | Bm -  | Bm D  | Em D  | G  -  :|
N: Last line to finish:
N:         | Bm -  | Bm D  | Em D  | G  -   | D  -  |]
M: 6/8
L: 1/8
Q: 1/4=170
N:
N: Tune only:
N:
N: K: D maj % 2 sharps
N: AG | FAA dAA | BAB dAG | FAA dfe    | d2B BAG |
N:      FAA dAA | BAB def | gfe d/e/fe | dBB B  :|
N: K: B min % 2 sharps
N: ze | fbb faa | fef deg | fbb faa    | fed efg |
N:      fbb faa | fef def | gfe d/e/fe | dBB B  :|
N: Last line to finish:
N:      fbb faa | fef def | gfe d/e/fe | dBB BAG | F6 |]
N:
N: Tune with Chords:
N:
K: D maj % 2 sharps
AG | "D"  FAA dAA | "G"  BAB     dAG | "D"  FAA     dfe    | "G"  d2B     BAG |
     "D"  FAA dAA | "G"  BAB "D" def | "Em" gfe "D" d/e/fe | "G"  dBB     B  :|
K: B min % 2 sharps
ze | "Bm" fbb faa | "Bm" fef "G" deg | "Bm" fbb     faa    | "Bm" fed "A" efg |
     "Bm" fbb faa | "Bm" fef "D" def | "Em" gfe "D" d/e/fe | "G"  dBB     B  :|
P: Last line to finish:
     "Bm" fbb faa | "Bm" fef "D" def | "Em" gfe "D" d/e/fe | "G"  dBB     BAG | "D" F6 |]
